svg/fluentui-system-icons/ic_fluent_desktop_arrow_down_20_filled.svg

<svg width="20" height="20" viewBox="0 0 20 20" fill="none" xmlns="http://www.w3.org/2000/svg">
<path d="M19 5.5C19 7.98528 16.9853 10 14.5 10C12.0147 10 10 7.98528 10 5.5C10 3.01472 12.0147 1 14.5 1C16.9853 1 19 3.01472 19 5.5ZM14.146 7.85316L14.1486 7.85567C14.196 7.90256 14.2505 7.93802 14.3086 7.96206C14.3667 7.98615 14.4303 7.9996 14.497 7.99999L14.5 8L14.503 7.99999C14.5697 7.9996 14.6333 7.98615 14.6914 7.96206C14.7504 7.93766 14.8056 7.90149 14.8536 7.85355L16.8536 5.85355C17.0488 5.65829 17.0488 5.34171 16.8536 5.14645C16.6583 4.95118 16.3417 4.95118 16.1464 5.14645L15 6.29289V3.5C15 3.22386 14.7761 3 14.5 3C14.2239 3 14 3.22386 14 3.5V6.29289L12.8536 5.14645C12.6583 4.95118 12.3417 4.95118 12.1464 5.14645C11.9512 5.34171 11.9512 5.65829 12.1464 5.85355L14.146 7.85316ZM14.5 11C15.8296 11 17.0491 10.5282 18 9.74284V13.5C18 14.3284 17.3284 15 16.5 15H13V17H14.5C14.7761 17 15 17.2239 15 17.5C15 17.7761 14.7761 18 14.5 18H5.5C5.22386 18 5 17.7761 5 17.5C5 17.2239 5.22386 17 5.5 17H7V15H3.5C2.67157 15 2 14.3284 2 13.5V3.5C2 2.67157 2.67157 2 3.5 2H10.2572C9.47182 2.95094 9 4.17037 9 5.5C9 8.53757 11.4624 11 14.5 11ZM12 15H8V17H12V15Z" fill="#212121"/>
</svg>

<svg xmlns="http://www.w3.org/2000/svg" width="20" height="20"><path d="M19 5.5a4.5 4.5 0 1 1-9 0 4.5 4.5 0 0 1 9 0Zm-4.854 2.353.003.003a.498.498 0 0 0 .348.144h.006a.498.498 0 0 0 .35-.146l2-2a.5.5 0 0 0-.707-.708L15 6.293V3.5a.5.5 0 0 0-1 0v2.793l-1.146-1.147a.5.5 0 0 0-.708.708l2 2ZM14.5 11c1.33 0 2.55-.472 3.5-1.257V13.5a1.5 1.5 0 0 1-1.5 1.5H13v2h1.5a.5.5 0 0 1 0 1h-9a.5.5 0 0 1 0-1H7v-2H3.5A1.5 1.5 0 0 1 2 13.5v-10A1.5 1.5 0 0 1 3.5 2h6.757a5.5 5.5 0 0 0 4.243 9ZM12 15H8v2h4v-2Z"/></svg>
